X:130
T:Veronica McNamaras Fancy (The Professors Prize Pupil)
R:reel
C: 2007, 2010 L.E. McCullough 
M:4/4
L:1/8
K:G 
|:~G3A (3BAG dG|gGfG edBA|~G3B DG (3Bcd|eAfA gfed|
~G3A (3BAG dG|gGfG edBA|gGfG (3efg dB|1 DFAF ~G3F:|2 DFAF ~G3A|]
|:D2(3FED AD (3FED|cABG AG (3FGA|D2(3FED ADFA|FGAF ~G3A|
D2(3FED AD (3FED|BD (3FED cD (3FED|dBBA BAGA|
[1 BGAF ~G3A:|2 BGAF ~G3F|]

